X: 42837
T: Wiggen
R: polka
M: 2/4
K: Dmajor
A/G/|FA dF|A3 B/A/|GB dG|B3 c/B/|
Ac e>f|g~f ed|cA Bc|1 df/d/ A:|2 d2 d A/G/||
|:F/A/d/A/ F/A/d/A/|F/A/d/A/ F B/A/|G/B/d/B/ G/B/d/B/|G/B/d/B/ G c/B/|
A/c/e/c/ A/c/e/c/|A/c/e/c/ ~A2|1 {B}A^G/A/ BA|F3 A/G/:|2 {B}A^G/A/ B/A/B/c/|dd/d/ dz||
ff/f/ ff|fe de|dB/B/ BB|B4|
A/c/e/c/ A/c/e/c/|A/c/e/c/ ~A2|1 {B}A^G/A/ BA|F4:|2 {B}A^G/A/ B/A/B/c/|dd/d/ d||

